X:678
T:Great Is the Cause of My Sorrow
T:Murt Ghlinne Comhann
T:The Lament for Glencoe
D:Whistlebinkies 2, 1980
Z:Nigel Gatherer
M:6/8
L:1/8
K:Cm
   c2c c>Bc | e3 e3   |    f2f        f>ec | c>BG B3  |
   a2a g>fg | b3 g2c  |    cf2        f2 e | c3   c2c |
{c}a2a g>fg | b3 g2f  |    g>fe       f<gd | c3-  c2d |
   e2c c>BA | G3 E2g  | {a}b>gf       e2 d | c3-  c3 ||
   c2c c>Bc | e3 e3   |    f2f        f>ec | c>BG B3  |
   A2A G>FG | B3 B,2C | {C}F3         F2 E | C3   C3  | 
   A2A G>FG | B3 G2F  | {F}G2 F/E/ {F}G2 B,| C3   C2d |
   e2c c>BA | G3 E2G  |    B>GF       E2 D | C3   C3 |]
<end>
<start>
